X: 1933
T: Tomorrow Is Gone
C:John Spencer, Grafton, NSW (1952 - 2015)
B: australian traditional tunes wiki
M:3/4
L:1/8
R: Waltz
Q: 1/4=100
K:Em
V:1 
"C"c3de2|"G"B3cd2|"D"A3Bc2|"Em"B2A2G2|"C"E3FG2|"D"A2F2D2|"Em"E3FE2|E6|
"C"c3de2|"G"B3cd2|"D"A3Bc2|"Em"B2A2G2|"C"E3FG2|"D"A2B2d2|"Em"e3de2|e6||
"C"e3fg2|"D"f2g2a2|"Em"b2a2g2|"Bm"f2e2d2|"C"c2d2e2|"G"d2c2B2|"Am"A2B2G2|"D"F4D2|
"C"E2F2G2|"D"A2B2c2|"Bm"d2e2f2|"Em"g2d2c2|"G"B3AG2|"D"F2E2D2|"Em"E3FE2|E6||
% abcbook-tune_id 6342d5beccf27b71fb84638a


% abcbook-boost 0
% abcbook-tablature 
% abcbook-transpose 
% abcbook-lastupdated 1665324488770
% abcbook-soundfonts 
% abcbook-repeats 1
% NFF Book 2020
% Bush Traditions recording played by Carole Helman

